z_dist/img/icons/crypto/polkadot-DOT.svg

<svg width="64" height="64" viewBox="0 0 64 64" fill="none" xmlns="http://www.w3.org/2000/svg">
<g clip-path="url(#clip0_234_2981)">
<rect y="0.000244141" width="64" height="64" rx="4" fill="white"/>
<path fill-rule="evenodd" clip-rule="evenodd" d="M31.3646 8.00024C41.2694 8.08774 48.7727 14.6989 50.2255 23.486C51.8683 33.4208 45.1264 42.8924 35.2035 44.6034C33.864 44.8345 32.495 44.9251 31.1352 45.0027C28.3788 45.1598 25.5909 47.026 24.944 50.6862C24.7584 51.7363 24.5103 52.7756 24.2864 53.8189C23.9611 55.3343 22.677 56.2344 21.2559 55.947C19.7872 55.6501 18.9384 54.3355 19.256 52.7922C19.662 50.8196 20.0972 48.8529 20.5196 46.8837C21.9963 40.0008 23.4766 33.1186 24.9465 26.2342C25.2849 24.6495 26.2206 23.7838 27.6261 23.8111C29.1837 23.8414 30.3805 25.2786 30.0592 26.8042C29.2894 30.4592 28.4864 34.1072 27.6984 37.7583C27.5461 38.4645 27.4058 39.1733 27.2512 39.8791C27.1889 40.1633 27.2384 40.3061 27.5774 40.2679C29.6678 40.032 31.7633 39.8366 33.8499 39.5719C39.4051 38.867 44.0578 34.445 45.0623 28.9523C46.4039 21.6173 41.6656 14.7536 34.3218 13.3942C26.9938 12.0375 19.7821 17.2829 18.8015 24.6721C18.5316 26.7057 18.7148 28.6897 19.3561 30.6348C19.8525 32.1403 19.1688 33.6341 17.7786 34.076C16.3259 34.5376 14.9186 33.7568 14.4324 32.2193C11.1106 21.7147 17.2321 10.9651 27.988 8.47742C29.2913 8.17604 30.6465 8.09815 31.3646 8.00024Z" fill="black"/>
<path fill-rule="evenodd" clip-rule="evenodd" d="M29.6023 52.9077C29.6079 51.1846 30.9241 49.8732 32.6485 49.8728C34.3917 49.8724 35.7428 51.2264 35.7186 52.9494C35.6944 54.6671 34.3625 55.9883 32.6545 55.9891C30.9084 55.99 29.5966 54.6656 29.6023 52.9077Z" fill="#E6027A"/>
</g>
<defs>
<clipPath id="clip0_234_2981">
<rect width="64" height="64" fill="white" transform="translate(0 0.000244141)"/>
</clipPath>
</defs>
</svg>

<svg width="64" height="64" fill="none" xmlns="http://www.w3.org/2000/svg"><g clip-path="url(#clip0_234_2981)"><rect width="64" height="64" rx="4" fill="#fff"/><path fill-rule="evenodd" clip-rule="evenodd" d="M31.365 8c9.904.088 17.408 6.699 18.86 15.486 1.643 9.935-5.099 19.406-15.022 21.117-1.339.231-2.708.322-4.068.4-2.756.157-5.544 2.023-6.191 5.683-.186 1.05-.434 2.09-.658 3.133-.325 1.515-1.609 2.415-3.03 2.128-1.469-.297-2.318-1.611-2-3.155.406-1.972.841-3.94 1.264-5.908 1.476-6.883 2.957-13.765 4.427-20.65.338-1.585 1.274-2.45 2.68-2.423 1.557.03 2.754 1.468 2.432 2.993-.77 3.655-1.573 7.303-2.36 10.954-.153.706-.293 1.415-.448 2.121-.062.284-.013.427.326.389 2.09-.236 4.186-.431 6.273-.696 5.555-.705 10.208-5.127 11.212-10.62 1.342-7.335-3.396-14.198-10.74-15.558-7.328-1.357-14.54 3.889-15.52 11.278a13.23 13.23 0 00.554 5.963c.496 1.505-.187 3-1.577 3.441-1.453.462-2.86-.32-3.347-1.857-3.321-10.504 2.8-21.254 13.556-23.742 1.303-.301 2.659-.379 3.377-.477z" fill="#000"/><path fill-rule="evenodd" clip-rule="evenodd" d="M29.602 52.908c.006-1.723 1.322-3.035 3.046-3.035 1.744 0 3.095 1.353 3.07 3.076-.024 1.718-1.356 3.04-3.064 3.04-1.746.001-3.057-1.323-3.052-3.081z" fill="#E6027A"/></g><defs><clipPath id="clip0_234_2981"><path fill="#fff" d="M0 0h64v64H0z"/></clipPath></defs></svg>
